X: 13446
T: Flooded Road To Glenties, The
R: reel
M: 4/4
K: Bdorian
FB B/A/B Gafe|cfec BAFE|FB B/A/B Ga a/g/a|gfeg f2 fe|
fgfe cfec|B/c/B cB cefg|aff2 egfe|1 cfec B2BA:|2 cfec B2Bc||
dB B/A/B aBgB|fB B/A/B cBAc|dB B/A/B ABde|gfeg f2 fg|
gffe fgfe|cfec BAFE|FB B/A/B ABce|afec B2Bc:|

